Papirus/64x64/apps/brosix.svg

<svg width="64" height="64" version="1.1" xmlns="http://www.w3.org/2000/svg">
 <rect x="4" y="5" width="56" height="56" ry="15" style="opacity:.2"/>
 <rect x="4" y="4" width="56" height="56" ry="15" style="fill:#2097d4"/>
 <path d="m32 12c-11.59798 0-21 9.40202-21 21s9.40202 21 21 21 21-9.40202 21-21-9.40202-21-21-21zm0 2c10.49341 0 19 8.50659 19 19s-8.50659 19-19 19c-5.26393-0.005408-10.289716-2.194376-13.878906-6.044922 0 0 2.878906-2.955078 7.878906-2.955078h14s3 0 3-3v-4c0-2-3-3-3-3s3-1 3-3v-4c0-3-3-3-3-3h-14c-5 0-7.869141-2.951172-7.869141-2.951172 3.586193-3.849509 8.608018-6.039707 13.869141-6.048828zm-6 12h10.5c1.385 0 2.5 1.115 2.5 2.5s-1.115 2.5-2.5 2.5h-10.5zm0 9h10.5c1.385 0 2.5 1.115 2.5 2.5s-1.115 2.5-2.5 2.5h-10.5z" style="opacity:.2"/>
 <path d="m32 11c-11.59798 0-21 9.40202-21 21s9.40202 21 21 21 21-9.40202 21-21-9.40202-21-21-21zm0 2c10.49341 0 19 8.50659 19 19s-8.50659 19-19 19c-5.26393-0.005408-10.289716-2.194376-13.878906-6.044922 0 0 2.878906-2.955078 7.878906-2.955078h14s3 0 3-3v-4c0-2-3-3-3-3s3-1 3-3v-4c0-3-3-3-3-3h-14c-5 0-7.869141-2.951172-7.869141-2.951172 3.586193-3.849509 8.608018-6.039707 13.869141-6.048828zm-6 12h10.5c1.385 0 2.5 1.115 2.5 2.5s-1.115 2.5-2.5 2.5h-10.5zm0 9h10.5c1.385 0 2.5 1.115 2.5 2.5s-1.115 2.5-2.5 2.5h-10.5z" style="fill:#ffffff"/>
 <path d="m19 4c-8.31 0-15 6.69-15 15v1c0-8.31 6.69-15 15-15h26c8.31 0 15 6.69 15 15v-1c0-8.31-6.69-15-15-15h-26z" style="fill:#ffffff;opacity:.2"/>
</svg>

<?xml version="1.0" encoding="UTF-8" standalone="no"?>
<svg
   id="_图层_1"
   version="1.1"
   viewBox="0 0 64 64" width="64" height="64"
   sodipodi:docname="brosix.svg"
   xml:space="preserve"
   inkscape:version="1.4 (e7c3feb100, 2024-10-09)"
   xmlns:inkscape="http://www.inkscape.org/namespaces/inkscape"
   xmlns:sodipodi="http://sodipodi.sourceforge.net/DTD/sodipodi-0.dtd"
   xmlns="http://www.w3.org/2000/svg"
   xmlns:svg="http://www.w3.org/2000/svg"><sodipodi:namedview
     id="namedview26"
     pagecolor="#505050"
     bordercolor="#eeeeee"
     borderopacity="1"
     inkscape:showpageshadow="0"
     inkscape:pageopacity="0"
     inkscape:pagecheckerboard="0"
     inkscape:deskcolor="#505050"
     inkscape:zoom="10.6875"
     inkscape:cx="32"
     inkscape:cy="36.397661"
     inkscape:window-width="1920"
     inkscape:window-height="939"
     inkscape:window-x="0"
     inkscape:window-y="34"
     inkscape:window-maximized="1"
     inkscape:current-layer="_图层_1" /><!-- Generator: Adobe Illustrator 29.0.1, SVG Export Plug-In . SVG Version: 2.1.0 Build 192)  --><defs
     id="defs6"><style
       id="style1">
      .st0 {
        fill-opacity: .5;
      }

      .st0, .st1, .st2, .st3, .st4, .st5, .st6, .st7 {
        fill: #fff;
      }

      .st8 {
        fill: #133c9a;
      }

      .st2, .st9 {
        display: none;
      }

      .st3 {
        fill-opacity: .2;
      }

      .st4 {
        fill-opacity: .9;
      }

      .st10 {
        fill: #3370ff;
      }

      .st11 {
        fill: url(#_未命名的渐变_3);
      }

      .st12 {
        fill: url(#_未命名的渐变);
      }

      .st5 {
        fill-opacity: .3;
      }

      .st6 {
        fill-opacity: 0;
      }

      .st7 {
        fill-opacity: .7;
      }

      .st13 {
        fill: #00d6b9;
      }

      .st14 {
        fill: url(#_未命名的渐变_2);
      }
    </style><radialGradient
       id="_未命名的渐变"
       data-name="未命名的渐变"
       cx="123.9"
       cy="-40.2"
       fx="123.9"
       fy="-40.2"
       r="59.4"
       gradientTransform="translate(-26.8 25.5) scale(.6 -.7)"
       gradientUnits="userSpaceOnUse"><stop
         offset="0"
         stop-color="#db202e"
         id="stop1" /><stop
         offset="1"
         stop-color="#e01b24"
         id="stop2" /></radialGradient><radialGradient
       id="_未命名的渐变_2"
       data-name="未命名的渐变 2"
       cx="67.6"
       cy="26.8"
       fx="67.6"
       fy="26.8"
       r="105.2"
       gradientTransform="translate(-26.6 25.3) scale(.6 -.7)"
       gradientUnits="userSpaceOnUse"><stop
         offset="0"
         stop-color="#ffb648"
         id="stop3" /><stop
         offset="1"
         stop-color="#ff7800"
         stop-opacity="0"
         id="stop4" /></radialGradient><radialGradient
       id="_未命名的渐变_3"
       data-name="未命名的渐变 3"
       cx="61.7"
       cy="18.6"
       fx="61.7"
       fy="18.6"
       r="68"
       gradientTransform="translate(-26.8 25.8) scale(.6 -.7)"
       gradientUnits="userSpaceOnUse"><stop
         offset="0"
         stop-color="#c64600"
         id="stop5" /><stop
         offset="1"
         stop-color="#a51d2d"
         id="stop6" /></radialGradient><style
       id="style1-2">
      .st0, .st1, .st2, .st3, .st4, .st5 {
        isolation: isolate;
      }

      .st0, .st1, .st6, .st7, .st5, .st8 {
        display: none;
      }

      .st0, .st3, .st4, .st5 {
        opacity: .2;
      }

      .st1 {
        opacity: .1;
      }

      .st1, .st9, .st2, .st4, .st5 {
        fill: #fff;
      }

      .st10 {
        fill: #3f3f3f;
      }

      .st2 {
        opacity: .3;
      }

      .st6 {
        fill: #505d6e;
      }

      .st11, .st8 {
        fill: #ffcca3;
      }

      .st12 {
        fill: #fed24c;
      }

      .st13 {
        fill: #c2352a;
      }
    </style></defs><path
     class="st1"
     d="M 47.5,64.1 H 13.8 C 6.2,64.1 0,57.8 0,50.3 V 13.7 C 0,6.2 6.2,0 13.7,0 H 50.3 C 57.8,0 64,6.2 64,13.7 V 50.3 C 64,57.8 57.8,64 50.3,64 h -2.9 0.1 z"
     id="path6"
     style="display:inline;opacity:1;fill:#2097d4;fill-opacity:1" /><g
     id="g27"
     transform="matrix(1.1420217,0,0,1.1411716,-4.4979115,-4.5325229)"><path
       d="M 32,12 C 20.40202,12 11,21.40202 11,33 11,44.59798 20.40202,54 32,54 43.59798,54 53,44.59798 53,33 53,21.40202 43.59798,12 32,12 Z m 0,2 C 42.49341,14 51,22.50659 51,33 51,43.49341 42.49341,52 32,52 26.73607,51.994592 21.710284,49.805624 18.121094,45.955078 18.121094,45.955078 21,43 26,43 h 14 c 0,0 3,0 3,-3 v -4 c 0,-2 -3,-3 -3,-3 0,0 3,-1 3,-3 v -4 c 0,-3 -3,-3 -3,-3 H 26 C 21,23 18.130859,20.048828 18.130859,20.048828 21.717052,16.199319 26.738877,14.009121 32,14 Z m -6,12 h 10.5 c 1.385,0 2.5,1.115 2.5,2.5 0,1.385 -1.115,2.5 -2.5,2.5 H 26 Z m 0,9 h 10.5 c 1.385,0 2.5,1.115 2.5,2.5 0,1.385 -1.115,2.5 -2.5,2.5 H 26 Z"
       style="opacity:0.2"
       id="path2" /><path
       d="M 32,11 C 20.40202,11 11,20.40202 11,32 11,43.59798 20.40202,53 32,53 43.59798,53 53,43.59798 53,32 53,20.40202 43.59798,11 32,11 Z m 0,2 C 42.49341,13 51,21.50659 51,32 51,42.49341 42.49341,51 32,51 26.73607,50.994592 21.710284,48.805624 18.121094,44.955078 18.121094,44.955078 21,42 26,42 h 14 c 0,0 3,0 3,-3 v -4 c 0,-2 -3,-3 -3,-3 0,0 3,-1 3,-3 v -4 c 0,-3 -3,-3 -3,-3 H 26 C 21,22 18.130859,19.048828 18.130859,19.048828 21.717052,15.199319 26.738877,13.009121 32,13 Z m -6,12 h 10.5 c 1.385,0 2.5,1.115 2.5,2.5 0,1.385 -1.115,2.5 -2.5,2.5 H 26 Z m 0,9 h 10.5 c 1.385,0 2.5,1.115 2.5,2.5 0,1.385 -1.115,2.5 -2.5,2.5 H 26 Z"
       style="fill:#ffffff"
       id="path3" /></g></svg>
